source/images/logo/alpinejs.svg

<svg fill="none" height="73" viewBox="0 0 73 73" width="73" xmlns="http://www.w3.org/2000/svg"><path d="m.998535.5h71.999965v72h-71.999965z" fill="#2d3441"/><path d="m49.4567 23.7607-25.1386 25.3508.1262.1263h25.2313l12.5229-12.6279z" fill="#d7deea"/><path d="m24.5393 23.7607 25.2224 25.4357-.0436.0414h-25.3977l-12.5218-12.6279z" fill="#7bc1d1"/></svg>

<svg width="73" height="73" viewBox="0 0 73 73" fill="none" xmlns="http://www.w3.org/2000/svg">
<path d="M0.998535 0.5H72.9985V72.5H0.998535V0.5Z" fill="#2D3441"/>
<path d="M49.4567 23.7607L24.3181 49.1115L24.4443 49.2378H49.6756L62.1985 36.6099L49.4567 23.7607Z" fill="#D7DEEA"/>
<path d="M24.5393 23.7607L49.7617 49.1964L49.7181 49.2378H24.3204L11.7986 36.6099L24.5393 23.7607Z" fill="#7BC1D1"/>
</svg>
